X:1
T:Title
%%score 1 { 2 | 3 }
L:1/8
Q:1/4=86
M:4/4
K:F
V:1 treble nm="Grand Piano, Soprano"
V:2 treble nm="Choir Pad, The Heathen at Your Door"
V:3 bass 
V:1
 [FA][GB] [Ac]>[Ac] [_A=B][=Ac][Fd][Fc] | [FA]F [Ff]>[Ff] [Ff][Fd] [Fc]2 | %2
w: By~Edmund~Simon~Lorenz * * * * * * *||
 [Fd][FA] [Ec]>[EB] [EB][_EA][=EB][EG] | [EA][EB] [Fd]>[Fc] [Fc][F=B] [Fc]2 | %4
w: ||
 [FA][GB] [Ac]>[Ac] [_A=B][=Ac][Fd][Fc] | [FA]F [Ff]>[Ff] [Fe][Fd] [Fc]2 | %6
w: ||
 z [Fc][Fd][Fc] [Af][Fd][Fc][FA] | F[FG] [FA]2 [CG]2 [CF]2- | [CF]2 [Fc]>[Fc] [Fc][Fc][Fd][Fc]- | %9
w: |||
 [Fc]2 [FA]>[FA] [FA][F_A] [F=A]2- | [FA]2 [Fc]>[Fc] [Fc][Fc][Fd][Fc]- | %11
w: ||
 [Fc]2 [EB]>[EB] [EB][_EA] [=EB]2 | [EG][FA] [GB]>[Ec] [Ed][Ge][Fd][Fc] | %13
w: ||
 [F=B][Fc][Fd][F_B] F[Fd] [Fc]2 | z [Fc][Fd][Fc] [Af][Fd][Fc][FA] | F[FG] [FA]2 [CG]2 [CF]2- | %16
w: |||
 [CF]4 z4 |] %17
w: |
V:2
 CC C>C DCB,A, | CC D>D C[K:bass]B, A,2 | A,C C>G, G,^F,G,B, | A,G, B,>A, A,_A, =A,2 | %4
 CC C>C DCB,A, | CC D>D C[K:bass]B, A,2 | z A,B,A, CB,A,[K:treble]C | CD C2 B,2[K:bass] A,2- | %8
 A,2 A,>A, A,A,B,A,- | A,2[K:treble] C>C C=B, C2- | C2[K:bass] A,>A, A,A,B,A,- | %11
 A,2[K:treble] C>C CC C2 | CC C>[K:bass]B, B,B,B,A, | _A,=A,B,D DB, A,2 | %14
 z A,B,A, CB,A,[K:treble]C | CD C2 B,2 A,2- | A,4 z4 |] %17
V:3
 F,F, F,>F, F,F,F,F, | F,A, B,>B, .B,2 F,2 | F,F, C,>C, C,C,C,C, | C,C, F,>F, F,F, F,2 | %4
 F,F, F,>F, F,F,F,F, | F,A, B,>B, .B,2 F,2 | z F,F,F, F,F,F,F, | A,,B,, C,2 C,2 F,2- | %8
 F,2 F,>F, F,F,F,F,- | F,2 F,>F, F,F, F,2- | F,2 F,>F, F,F,F,F,- | F,2 G,>G, G,^F, G,2 | %12
 C,C, C,>C, C,C,F,F, | F,F, z B, .B,2 F,2 | z F,F,F, F,F,F,F, | A,,B,, C,2 C,2 F,2- | F,4 z4 |] %17

